svg/website.svg

<?xml version="1.0" encoding="UTF-8"?>
<svg xmlns="http://www.w3.org/2000/svg" xmlns:xlink="http://www.w3.org/1999/xlink" width="32" height="32" viewBox="0 0 32 32">
<path fill-rule="nonzero" fill="rgb(0%, 0%, 0%)" fill-opacity="1" d="M 16 1.28125 C 7.871094 1.28125 1.28125 7.871094 1.28125 16 C 1.28125 24.128906 7.871094 30.71875 16 30.71875 C 24.128906 30.71875 30.71875 24.128906 30.71875 16 C 30.71875 7.871094 24.128906 1.28125 16 1.28125 M 16 2.558594 C 22.074219 2.558594 27.214844 6.613281 28.871094 12.160156 L 27.53125 12.160156 C 27.074219 10.796875 26.378906 9.527344 25.476562 8.410156 C 24.640625 8.800781 23.710938 9.140625 22.691406 9.410156 C 22.96875 10.28125 23.199219 11.199219 23.359375 12.160156 L 22.066406 12.160156 C 21.917969 11.328125 21.714844 10.507812 21.453125 9.703125 C 19.867188 10.019531 18.257812 10.195312 16.640625 10.226562 L 16.640625 12.160156 L 15.359375 12.160156 L 15.359375 10.226562 C 13.742188 10.195312 12.132812 10.019531 10.550781 9.699219 C 10.289062 10.503906 10.082031 11.324219 9.933594 12.160156 L 8.640625 12.160156 C 8.804688 11.199219 9.03125 10.28125 9.308594 9.410156 C 8.351562 9.15625 7.417969 8.824219 6.519531 8.410156 C 5.621094 9.53125 4.925781 10.800781 4.46875 12.160156 L 3.125 12.160156 C 4.785156 6.613281 9.925781 2.558594 16 2.558594 M 15.359375 3.90625 C 14.566406 4.058594 13.796875 4.5 13.066406 5.226562 C 12.246094 6.046875 11.550781 7.171875 10.996094 8.488281 C 12.363281 8.757812 13.84375 8.910156 15.359375 8.945312 Z M 16.640625 3.90625 L 16.640625 8.945312 C 18.105469 8.917969 19.566406 8.765625 21.003906 8.488281 C 20.445312 7.15625 19.738281 6.023438 18.90625 5.199219 C 18.1875 4.488281 17.425781 4.058594 16.640625 3.90625 M 11.972656 4.53125 C 10.257812 5.140625 8.703125 6.125 7.417969 7.410156 C 8.128906 7.714844 8.902344 7.984375 9.742188 8.203125 C 10.332031 6.746094 11.082031 5.484375 11.972656 4.53125 M 20.023438 4.53125 C 20.914062 5.484375 21.664062 6.746094 22.257812 8.203125 C 23.097656 7.984375 23.875 7.71875 24.582031 7.410156 C 23.296875 6.121094 21.738281 5.136719 20.023438 4.53125 M 2.558594 13.441406 L 3.90625 13.441406 L 4.886719 16.957031 L 6.070312 13.441406 L 7.632812 13.441406 L 8.769531 17.015625 L 9.769531 13.441406 L 11.089844 13.441406 L 9.511719 18.558594 L 8.121094 18.558594 L 6.824219 14.734375 L 5.535156 18.558594 L 4.113281 18.558594 Z M 11.734375 13.441406 L 13.078125 13.441406 L 14.058594 16.957031 L 15.246094 13.441406 L 16.808594 13.441406 L 17.949219 17.015625 L 18.941406 13.441406 L 20.265625 13.441406 L 18.6875 18.558594 L 17.296875 18.558594 L 16 14.734375 L 14.710938 18.558594 L 13.289062 18.558594 Z M 20.878906 13.441406 L 22.226562 13.441406 L 23.210938 16.957031 L 24.402344 13.441406 L 25.96875 13.441406 L 27.113281 17.015625 L 28.113281 13.441406 L 29.441406 13.441406 L 27.855469 18.558594 L 26.460938 18.558594 L 25.160156 14.734375 L 23.863281 18.558594 L 22.433594 18.558594 Z M 22.066406 19.839844 L 23.359375 19.839844 C 23.195312 20.800781 22.96875 21.71875 22.691406 22.589844 C 23.707031 22.863281 24.640625 23.199219 25.480469 23.589844 C 26.378906 22.46875 27.074219 21.199219 27.53125 19.839844 L 28.871094 19.839844 C 27.214844 25.382812 22.074219 29.441406 16 29.441406 C 9.925781 29.441406 4.785156 25.386719 3.125 19.839844 L 4.46875 19.839844 C 4.925781 21.199219 5.621094 22.46875 6.523438 23.589844 C 7.359375 23.199219 8.289062 22.859375 9.308594 22.589844 C 9.019531 21.691406 8.796875 20.769531 8.640625 19.839844 L 9.933594 19.839844 C 10.085938 20.703125 10.296875 21.523438 10.546875 22.296875 C 12.132812 21.980469 13.742188 21.804688 15.359375 21.773438 L 15.359375 19.839844 L 16.640625 19.839844 L 16.640625 21.773438 C 18.257812 21.804688 19.867188 21.980469 21.449219 22.300781 C 21.703125 21.523438 21.914062 20.703125 22.066406 19.839844 M 15.359375 23.054688 C 13.847656 23.089844 12.378906 23.242188 11.019531 23.511719 C 12.074219 26.011719 13.625 27.746094 15.359375 28.09375 Z M 16.640625 23.054688 L 16.640625 28.09375 C 17.433594 27.9375 18.203125 27.496094 18.933594 26.769531 C 19.753906 25.953125 20.449219 24.828125 21.003906 23.511719 C 19.566406 23.234375 18.105469 23.082031 16.640625 23.054688 M 22.257812 23.796875 C 21.667969 25.253906 20.917969 26.515625 20.027344 27.46875 C 21.742188 26.863281 23.296875 25.878906 24.582031 24.589844 C 23.828125 24.265625 23.050781 24.003906 22.257812 23.796875 M 9.722656 23.800781 C 8.933594 24.003906 8.164062 24.265625 7.414062 24.585938 C 8.691406 25.863281 10.234375 26.84375 11.933594 27.453125 C 11.058594 26.511719 10.3125 25.265625 9.722656 23.800781 M 9.722656 23.800781 "/>
</svg>

<svg role="img" viewBox="0 0 32 32" height="32" width="32" xmlns="http://www.w3.org/2000/svg"><path d="M16 1.281C7.871 1.281 1.281 7.871 1.281 16S7.871 30.719 16 30.719 30.719 24.129 30.719 16 24.129 1.281 16 1.281m0 1.278c6.074 0 11.215 4.054 12.871 9.601h-1.34a12.168 12.168 0 0 0-2.054-3.75c-.836.39-1.766.73-2.786 1 .278.871.508 1.79.668 2.75h-1.293a18.364 18.364 0 0 0-.613-2.457 27.302 27.302 0 0 1-4.812.524v1.933h-1.282v-1.933a26.929 26.929 0 0 1-4.808-.528 17.985 17.985 0 0 0-.617 2.461H8.64c.164-.96.39-1.879.668-2.75a17.264 17.264 0 0 1-2.79-1 12.285 12.285 0 0 0-2.05 3.75H3.125c1.66-5.547 6.8-9.6 12.875-9.6m-.64 1.347c-.794.153-1.563.594-2.294 1.32-.82.82-1.515 1.946-2.07 3.262 1.367.27 2.848.422 4.363.457Zm1.28 0v5.04a25.804 25.804 0 0 0 4.364-.458c-.559-1.332-1.266-2.465-2.098-3.289-.718-.71-1.48-1.14-2.265-1.293m-4.667.625a12.165 12.165 0 0 0-4.555 2.88c.71.304 1.484.573 2.324.792.59-1.457 1.34-2.719 2.23-3.672m8.05 0c.891.953 1.641 2.215 2.235 3.672.84-.219 1.617-.484 2.324-.793a12.15 12.15 0 0 0-4.559-2.879M2.56 13.441h1.347l.98 3.516 1.184-3.516h1.563l1.137 3.575 1-3.575h1.32L9.512 18.56h-1.39l-1.298-3.825-1.289 3.825H4.113Zm9.175 0h1.344l.98 3.516 1.188-3.516h1.563l1.14 3.575.992-3.575h1.325l-1.578 5.118h-1.391L16 14.734l-1.29 3.825h-1.42Zm9.145 0h1.348l.984 3.516 1.191-3.516h1.567l1.144 3.575 1-3.575h1.328l-1.586 5.118h-1.394l-1.3-3.825-1.298 3.825h-1.43Zm1.187 6.399h1.293c-.164.96-.39 1.879-.668 2.75 1.016.273 1.95.61 2.79 1a12.248 12.248 0 0 0 2.05-3.75h1.34c-1.657 5.543-6.798 9.6-12.872 9.6S4.785 25.386 3.125 19.839h1.344a12.168 12.168 0 0 0 2.054 3.75c.836-.39 1.766-.73 2.786-1a19.783 19.783 0 0 1-.668-2.75h1.293c.152.863.363 1.683.613 2.457a27.302 27.302 0 0 1 4.812-.524V19.84h1.282v1.933a26.96 26.96 0 0 1 4.808.528c.254-.778.465-1.598.617-2.461m-6.707 3.215c-1.511.035-2.98.187-4.34.457 1.055 2.5 2.606 4.234 4.34 4.582Zm1.282 0v5.039c.793-.157 1.562-.598 2.293-1.324.82-.817 1.515-1.942 2.07-3.258a25.846 25.846 0 0 0-4.363-.457m5.617.742c-.59 1.457-1.34 2.719-2.23 3.672a12.165 12.165 0 0 0 4.554-2.88 16.359 16.359 0 0 0-2.324-.792M9.723 23.8a16.14 16.14 0 0 0-2.309.785 12.213 12.213 0 0 0 4.52 2.867c-.875-.941-1.621-2.187-2.211-3.652m0 0"/></svg>
